public/Img/Product/service__notes.svg

<svg width="56" height="56" viewBox="0 0 56 56" fill="none" xmlns="http://www.w3.org/2000/svg">
<g id="Icon">
<rect id="Vector" x="51.7998" y="4.19995" width="8.4" height="47.6" rx="1.4" transform="rotate(90 51.7998 4.19995)" fill="#6B7CFF"/>
<path id="Vector_2" fill-rule="evenodd" clip-rule="evenodd" d="M32.2002 16.8C32.2002 16.0268 31.5734 15.4 30.8002 15.4H5.60019C4.827 15.4 4.2002 16.0268 4.2002 16.8V50.4C4.2002 51.1732 4.827 51.8 5.60019 51.8H30.8002C31.5734 51.8 32.2002 51.1732 32.2002 50.4V16.8ZM26.5998 22.4H9.79982V25.2H26.5998V22.4ZM9.79982 32.2H26.5998V35H9.79982V32.2ZM26.5998 42H9.79982V44.8H26.5998V42Z" fill="#6B7CFF"/>
<rect id="Vector_3" x="35" y="15.4" width="16.8" height="36.4" rx="1.4" fill="#6B7CFF"/>
</g>
</svg>

<svg width="56" height="56" fill="none" xmlns="http://www.w3.org/2000/svg"><g fill="#6B7CFF"><rect x="51.8" y="4.2" width="8.4" height="47.6" rx="1.4" transform="rotate(90 51.8 4.2)"/><path fill-rule="evenodd" clip-rule="evenodd" d="M32.2 16.8a1.4 1.4 0 0 0-1.4-1.4H5.6a1.4 1.4 0 0 0-1.4 1.4v33.6a1.4 1.4 0 0 0 1.4 1.4h25.2a1.4 1.4 0 0 0 1.4-1.4V16.8Zm-5.6 5.6H9.8v2.8h16.8v-2.8ZM9.8 32.2h16.8V35H9.8v-2.8ZM26.6 42H9.8v2.8h16.8V42Z"/><rect x="35" y="15.4" width="16.8" height="36.4" rx="1.4"/></g></svg>
